X:1
T:Drawn to You
T:Drawn to You
T:Scott Werdebaugh, 1991
T:Scott Werdebaugh, 2000
T:© 1991 &amp; 2008 Scott Werdebaugh. Reproduce or publish freely for Christian worship or devotions. Courtesy of the Cyber Hymnal™
T:© 1991 &amp; 2008 Scott Werdebaugh. Reproduce or publish freely for Christian worship or devotions. Courtesy of the Cyber Hymnal™
C:Scott Werdebaugh, 1991
Z:© 1991 & 2008 Scott Werdebaugh. Reproduce or publish freely for Christian worship or devotions.
Z:Courtesy of the Cyber Hymnal™
%%score ( 1 2 ) ( 3 4 )
L:1/8
Q:1/4=108
M:4/4
K:Bb
V:1 treble 
V:2 treble 
V:3 bass 
V:4 bass 
V:1
"^Stately and Majestic" [B,F][CE] | D3 [B,D] [B,E]2 [B,D]2 | [EG]2 [EG]2 [DF]2 [DF]2 | %3
w: 1.~O my|God, when I con-|sid- er all The|
w: 2.~O my|God, when I was|lost in sin, When|
w: 3.~O my|God, I’ll glad- ly|bear my cross And|
 [DB]2 [EB]2 [FB][CFA] GF | [DG]6 [B,D]2 | [CG]2 [CG]2 [B,F]2 [DA]2 | [DB]2 [=EB]2 [^FA]2 [Gd]2 | %7
w: ways You show me Your great|love; I|won- der why You’d|go so far To|
w: I was Your great en- e-|my; You|came to me and|saved my soul And|
w: live for You through- out my|days; No|less You’ve done for|me, I know, And|
 [Gc]2 [DB]2 [EB]2 [^FA]2 | [GB]6 [=FB][Ac] | [Fd]2 [Fd]2 [Fd]2 [DB]2 | [Ac]2 [Gc]2 [Fc]2 [EA]2 | %11
w: love one such as|me. Yet it’s|not what I’ve done|nor who I am|
w: now I am Your|friend. Your great|love is more than|I can com- pre-|
w: still You love me|so! Let me|show to o- thers|all a- round How|
 [DB]2 [B,B]2 [DB]2 [EG]2 | [^FA]6 [CD]2 | [B,G]2 [EG]2 [D^F]2 D2 | [DB]2 [GB]2 [^FA]2 [=Fd]2 | %15
w: That draws You to|me; It’s|Who You are and|what You’ve done That|
w: hend This side of|heav’n; For|all You are and|all You’ve done, Ny|
w: much You mean to|me; For|all You are and|all You’ve done, Lord,|
 [Gc]2 [DB]2 [EB]2 A2 | [DB]6"^Play 3 times" :| %17
w: draws my soul to|You.|
w: soul is drawn to|You.|
w: draw us all to|You.|
V:2
 x2 | (C2 B,) x5 | x8 | x6 D2 | x8 | x8 | x8 | x8 | x8 | x8 | x8 | x8 | x8 | x6 D2 | x8 | x6 (FE) | %16
 x6 :| %17
V:3
 [G,,D,][A,,F,] | [B,,F,]3 [B,,F,] [B,,G,]2 [B,,F,]2 | ([E,B,][F,A,]) ([G,B,][A,C]) B,2 [A,B,]2 | %3
 [G,B,]2 [G,C]2 DE [A,C]2 | B,6 [G,,D,]2 | [G,,E,]2 [A,,E,]2 [B,,D,]2 [D,^F,]2 | %6
 G,2 [G,C]2 D2 [D,B,]2 | [_E,C]2 [G,B,]2 [G,C]2 [^F,D]2 | [G,D]6 [D,B,][F,A,] | %9
 [B,,B,]2 [C,B,]2 [D,B,]2 [B,,F,]2 | [A,,F,]2 [B,,F,]2 [C,A,]2 [F,C]2 | %11
 [G,B,]2 [D,G,]2 [G,B,]2 [E,C]2 | [D,A,]6 [A,,^F,]2 | [D,G,]2 [C,E,]2 [D,A,]2 D,2 | %14
 G,2 G,2 [D,A,]2 [D,B,]2 | [E,C]2 [F,B,]2 [F,C]2 [F,C]2 | [B,,F,B,]6"^Play 3 times" :| %17
V:4
 x2 | x8 | x4 B,2 x2 | x4 G,2 x2 | B,6 x2 | x8 | G,2 (^F,=E,) x4 | x8 | x8 | x8 | x8 | x8 | x8 | %13
 x6 D,2 | (G,,A,,) (B,,C,) x4 | x8 | x6 :| %17

